X:1
T:Un dolor tengo
T:Anonymous
T:Source : Cancionero de Uppsala : Villancicos---Venetia---G.Scotto---1556. Editor :  André Vierendeels (07/04/17).
T:Notes : Original clefs : C2, C2 Original note values have been halved 
T:Un dolor tengo
T:©
T:©
C:Anonymous
Z:©
%%score [ 1 2 ]
L:1/8
Q:1/4=120
M:4/4
K:C
V:1 treble nm="Alto 1" snm="A 1"
V:2 treble nm="Alto 2" snm="A 2"
V:1
 G4 A4 | G4 z2 G2- | G2 F2 E2 C2 | E3 D E2 D2- | DC C4 B,2 | C8 | z2 G4 E2 | F2 E2 G4 | %8
w: Un do-|lor ten-|* go e- nel-|lal- * * *||ma,|no sal-|dra sin quel-|
w: Ya'un- que-|la Ra-|* zon me val-|||ga|||
 A2 G3 F E2 | D4 C2 G2- | G2 E2 F2 E2 | G4 A2 G2- | GF E2 D2 E2 | D2 C4 B,2 | C8 || G4 G4 | A4 G4 | %17
w: la sal- * *|* * ga,|* no sal- *|dra sin quel-|* la sal- * *||ga.|Que no|sa de-|
w: |||||||Quel do-|lor pue-|
 E2 F2 G2 A2- | A2 G2 F4 | E4 z2 C2 | D2 E2 F4 | E4 z2 C2 | D2 E2 F4 | E2 G4 F2 | E2 DC D4 | C8 |] %26
w: pre- * * *|* * su-|nir, si-|en- do el|mal, de|tal ma- ne-|ra, de tal|ma- * * ne-|ra.|
w: da sa- * *||lir, que|no sal- *|ga el-|la pri- me-|ra, el- la|pri- * * me-|ra.|
V:2
 z8 | z4 G4 | A4 G4 | z2 G4 F2 | E2 C2 D4 | C2 G4 E2 | F2 E2 G4 | A2 G3 F E2 | D2 E2 D2 C2- | %9
w: |Un|do- lor|ten- go|e- nel- lal-|ma, no sal-|dra sin quel-|la\_sal- * * ga,|sin quel- la sal-|
w: |Ya'un-|que- la|Ra- zon|me val- *|ga * *||||
 C2 B,2 C4- | C4 z2 G2- | G2 E2 F2 E2 | G4 A2 G2- | GF E2 D4 | C8 || z2 E4 E2 | C2 F4 E2 | %17
w: * ga, no|* sal-|* dra sin quel-|la sal- ga.||Que|no sa|de pre- su-|
w: ||||||Quel do-|lor pue- da|
 C2 D2 E2 F2- | FE E4 D2 | E2 C2 D2 E2 | F2 E4 D2 | E2 C2 D2 E2 | F2 E4 D2 | G3 F E2 D2- | %24
w: |* * * nir,|si- en- do el\_mal,|de * *|tal ma- ne- ra,|de * *|tal ma- ne- ra.|
w: sa- * * *||lir, que no sal-||ga, el- la pri-|me- * *|ra, el- la pri-|
 DC C4 B,2 | C8 |] %26
w: ||
w: * * me- *|ra.|

